brandFactory_export/3.Masa/Anular_3Masa.svg

<?xml version="1.0" encoding="UTF-8"?>
<svg width="24px" height="24px" viewBox="0 0 24 24" version="1.1" xmlns="http://www.w3.org/2000/svg" xmlns:xlink="http://www.w3.org/1999/xlink">
    <title>3.Masa/Anular_3Masa</title>
    <g id="Symbols" stroke="none" stroke-width="1" fill="none" fill-rule="evenodd">
        <g id="3.Masa/Anular_3Masa" fill="#5CB615" fill-rule="nonzero">
            <path d="M11.8084034,21.6537815 C8.94117647,21.6537815 6.73277311,21.0756303 5.13613445,19.8991597 L19.8655462,5.17310924 C21.0588235,6.77647059 21.6537815,8.98151261 21.6537815,11.8151261 C21.6537815,18.5277311 18.5243697,21.6537815 11.8084034,21.6537815 M11.8084034,1.9697479 C14.6588235,1.9697479 16.8739496,2.56806723 18.4773109,3.77478992 L3.74117647,18.5109244 C2.5512605,16.9142857 1.9697479,14.6957983 1.9697479,11.8151261 C1.9697479,5.09915966 5.09579832,1.9697479 11.8084034,1.9697479 M11.8084034,0 C4.34621849,0 0,3.76806723 0,11.8151261 C0,19.8621849 4.34621849,23.6235294 11.8084034,23.6235294 C19.2705882,23.6235294 23.6235294,19.8621849 23.6235294,11.8151261 C23.6235294,3.76806723 19.2705882,0 11.8084034,0" id="Anular_3Masa"></path>
        </g>
    </g>
</svg>

<svg width="24" height="24" viewBox="0 0 24 24" xmlns="http://www.w3.org/2000/svg"><path d="M11.808 21.654c-2.867 0-5.075-.578-6.672-1.755l14.73-14.726c1.193 1.603 1.788 3.809 1.788 6.642 0 6.713-3.13 9.839-9.846 9.839m0-19.684c2.85 0 5.066.598 6.67 1.805L3.74 18.51c-1.19-1.597-1.771-3.815-1.771-6.696 0-6.716 3.126-9.845 9.838-9.845m0-1.97C4.346 0 0 3.768 0 11.815s4.346 11.809 11.808 11.809c7.463 0 11.816-3.762 11.816-11.809C23.624 3.768 19.27 0 11.808 0" fill="#5CB615" fill-rule="nonzero"/></svg>
